packages/astro-components-stencil/src/icons/tablet-android.svg

<svg xmlns="http://www.w3.org/2000/svg" viewBox="0 0 24 24"><g xmlns="http://www.w3.org/2000/svg" id="tablet-android" fill-rule="nonzero">
            <path d="M18 0H6C4.34 0 3 1.34 3 3v18c0 1.66 1.34 3 3 3h12c1.66 0 3-1.34 3-3V3c0-1.66-1.34-3-3-3zm-4.5 22h-3c-.28 0-.5-.22-.5-.5s.22-.5.5-.5h3c.28 0 .5.22.5.5s-.22.5-.5.5zm5.75-3H4.75V3h14.5v16z"/>
        </g></svg>

<svg width="24" height="24" viewBox="0 0 24 24" fill="none" xmlns="http://www.w3.org/2000/svg">
<path fill-rule="evenodd" clip-rule="evenodd" d="M18 0H6C4.34 0 3 1.34 3 3V21C3 22.66 4.34 24 6 24H18C19.66 24 21 22.66 21 21V3C21 1.34 19.66 0 18 0ZM13.5 22H10.5C10.22 22 10 21.78 10 21.5C10 21.22 10.22 21 10.5 21H13.5C13.78 21 14 21.22 14 21.5C14 21.78 13.78 22 13.5 22ZM4.75 19H19.25V3H4.75V19Z" fill="black"/>
</svg>
